images/partners/citta-di-lugano-128-57.svg

<svg width="129" height="58" viewBox="0 0 129 58" fill="none" xmlns="http://www.w3.org/2000/svg">
<path d="M20.506 54.4007C15.7277 53.5917 11.3903 51.1168 8.26258 47.4149C5.1349 43.713 3.41907 39.0231 3.41928 34.1768V29.0527H2.4793e-07V34.1768C-0.000827401 39.9287 2.07054 45.4884 5.8347 49.8376C9.59887 54.1867 14.8039 57.0342 20.4964 57.8586L20.506 54.4007Z" fill="#161616"/>
<path d="M27.375 54.4007C32.1533 53.5917 36.4908 51.1168 39.6184 47.4149C42.7461 43.713 44.462 39.0231 44.4617 34.1768V29.0527H47.881V34.1768C47.8819 39.9287 45.8105 45.4884 42.0463 49.8376C38.2822 54.1867 33.0772 57.0342 27.3846 57.8586L27.375 54.4007Z" fill="#161616"/>
<path d="M20.506 0H0V22.2157H3.41928V3.41928H20.506V0Z" fill="#161616"/>
<path d="M27.375 0V3.41928H44.4617V22.2157H47.881V0H27.375Z" fill="#161616"/>
<path d="M19.9421 19.4334H13.88V10.2559H10.7188V22.2185H19.9421V19.4334Z" fill="#161616"/>
<path d="M34.452 22.2185L39.0649 10.2559H35.5926L33.0052 18.2229L30.4034 10.2559H26.8828L31.4113 22.2185H34.452Z" fill="#161616"/>
<path d="M15.3663 36.4159H17.5824V38.2509C17.3633 38.3354 17.1363 38.3976 16.9048 38.4366C16.6041 38.4837 16.3001 38.5071 15.9957 38.5065C15.5014 38.514 15.0102 38.4264 14.5489 38.2485C14.1482 38.0874 13.7877 37.8405 13.4927 37.5251C13.203 37.2089 12.9836 36.835 12.8489 36.4279C12.697 35.9692 12.622 35.4885 12.6271 35.0052C12.6214 34.5298 12.7031 34.0574 12.8682 33.6115C13.0203 33.2059 13.2514 32.8346 13.5482 32.5191C13.8371 32.2098 14.1868 31.9635 14.5754 31.7957C14.9846 31.6213 15.4255 31.5335 15.8703 31.5377C16.3717 31.5288 16.8692 31.6275 17.3292 31.8271C17.7196 31.9904 18.0694 32.2373 18.354 32.5505L18.4818 32.6976L20.488 30.4116L20.3723 30.2983C19.801 29.7759 19.1254 29.3806 18.3902 29.1384C17.5489 28.8474 16.664 28.7022 15.7739 28.7092C14.9083 28.7027 14.0484 28.8505 13.2347 29.1457C12.472 29.4253 11.7721 29.8531 11.1754 30.4044C10.5817 30.9624 10.1125 31.6395 9.79856 32.3913C9.14006 34.0492 9.14006 35.8961 9.79856 37.554C10.1105 38.3028 10.5735 38.9792 11.1586 39.541C11.7574 40.1037 12.4635 40.54 13.2347 40.8238C14.0697 41.1413 14.9552 41.3055 15.8486 41.3085C16.6993 41.3144 17.5476 41.2189 18.3757 41.0239C19.0802 40.8597 19.7626 40.612 20.4085 40.2861L20.4977 40.2402V33.8116H15.3663V36.4159Z" fill="#161616"/>
<path d="M34.3949 29.0469H31.4555L26.4375 41.0095H29.8616L30.7152 38.7284H34.9833L35.8851 41.0095H39.3719L34.3949 29.0469ZM34.1779 36.2134H31.5495L32.8782 32.5626L34.1779 36.2134Z" fill="#161616"/>
<path d="M65.093 34.3748C64.7377 33.9355 64.2876 33.5822 63.7765 33.3412C63.2655 33.1003 62.7065 32.978 62.1415 32.9835C59.7302 32.9835 57.9844 34.7124 57.9844 37.0827C57.9844 39.4241 59.7712 41.182 62.1415 41.182C62.7051 41.183 63.2619 41.0595 63.7721 40.8202C64.2824 40.5809 64.7334 40.2318 65.093 39.7979V40.9843H66.3131V28.4453H65.093V34.3748ZM62.1415 40.0873C60.4705 40.0873 59.3034 38.8575 59.3034 37.102C59.3034 35.3466 60.4898 34.1144 62.1246 34.1144C62.5239 34.102 62.9216 34.1697 63.2942 34.3137C63.6668 34.4576 64.0068 34.6748 64.294 34.9525C64.5812 35.2301 64.8098 35.5625 64.9663 35.93C65.1228 36.2975 65.204 36.6927 65.2052 37.0921C65.2063 37.4916 65.1273 37.8872 64.9729 38.2556C64.8185 38.624 64.5917 38.9577 64.3061 39.2369C64.0205 39.5162 63.6817 39.7353 63.3099 39.8813C62.9381 40.0274 62.5408 40.0974 62.1415 40.0873Z" fill="#161616"/>
<path d="M70.017 33.1914H68.7969V41.0114H70.017V33.1914Z" fill="#161616"/>
<path d="M78.6994 29.252H77.3828V41.0121H84.1177V39.7919H78.6994V29.252Z" fill="#161616"/>
<path d="M92.1423 39.3162V33.1914H90.9221V37.2642C90.9221 39.1161 89.7768 40.0854 88.6434 40.0854C87.2424 40.0854 86.642 39.3403 86.642 37.5921V33.1914H85.4219V38.1998C85.4219 40.1288 86.4732 41.2067 88.3806 41.2067C88.8769 41.1984 89.3645 41.0755 89.8054 40.8475C90.2463 40.6195 90.6285 40.2927 90.9221 39.8925V40.3193C90.9227 40.5317 90.9396 40.7437 90.9728 40.9535V41.0114H92.2219V40.9342C92.2098 40.7823 92.1423 39.4681 92.1423 39.3162Z" fill="#161616"/>
<path d="M100.817 34.3848C100.471 33.9388 100.025 33.5801 99.5158 33.3372C99.0062 33.0943 98.4469 32.9741 97.8825 32.9862C95.6159 32.9862 93.9062 34.7247 93.9062 37.0276C93.9071 37.5579 94.0138 38.0827 94.2201 38.5712C94.4264 39.0598 94.7282 39.5022 95.1078 39.8726C95.4874 40.2429 95.937 40.5338 96.4305 40.728C96.924 40.9223 97.4512 41.0161 97.9814 41.0039C99.1871 41.0039 100.176 40.5409 100.817 39.6608V40.9436C100.817 42.7786 99.7586 43.8372 97.9235 43.8372C97.3667 43.8481 96.815 43.7286 96.3126 43.4883C95.8102 43.248 95.3709 42.8935 95.0299 42.4531L94.1209 43.3935C95.124 44.4617 96.3128 44.9585 97.8657 44.9585C100.518 44.9585 102.054 43.4972 102.054 40.9508V33.1936H100.834L100.817 34.3848ZM98.0128 39.8923C97.2596 39.8777 96.5429 39.5647 96.0203 39.0222C95.4976 38.4797 95.2117 37.7519 95.2253 36.9986C95.2253 35.4337 96.4936 34.105 97.9959 34.105C99.7031 34.105 100.851 35.3107 100.851 37.0927C100.853 37.4642 100.781 37.8325 100.639 38.1757C100.497 38.519 100.287 38.8303 100.022 39.0912C99.7579 39.3521 99.4438 39.5574 99.0986 39.695C98.7535 39.8326 98.3843 39.8997 98.0128 39.8923Z" fill="#161616"/>
<path d="M110.391 39.2963V35.7324C110.391 34.0662 109.255 32.9883 107.498 32.9883C106.051 32.9883 104.954 33.3717 104.216 34.1264L104.966 34.9969C105.59 34.4152 106.415 34.0973 107.268 34.1096C108.585 34.1096 109.171 34.7124 109.171 36.0627V36.1568H108.747C105.371 36.1568 103.852 36.9983 103.852 38.8864C103.852 40.2512 104.966 41.2037 106.562 41.2037C107.768 41.2037 108.597 40.789 109.238 39.8654C109.24 40.2293 109.273 40.5924 109.337 40.9505V41.006H110.524L110.512 40.9288C110.443 40.3871 110.403 39.8422 110.391 39.2963ZM106.907 40.0824C105.853 40.0824 105.171 39.5544 105.171 38.7369C105.171 37.7338 106.347 37.1816 108.484 37.1816H109.171V37.524C109.171 39.1493 108.346 40.0824 106.907 40.0824Z" fill="#161616"/>
<path d="M116.029 32.9854C115.532 32.9896 115.043 33.1106 114.602 33.3384C114.16 33.5663 113.778 33.8947 113.487 34.2971C113.495 33.9451 113.478 33.593 113.437 33.2434V33.1831H112.188L112.272 34.871V40.9982H113.492V37.0702C113.492 34.9 114.746 34.1163 115.821 34.1163C117.169 34.1163 117.772 34.8855 117.772 36.6096V41.0127H118.992V36.0019C118.987 34.0632 117.936 32.9854 116.029 32.9854Z" fill="#161616"/>
<path d="M124.621 33.021C124.077 33.0063 123.535 33.1019 123.029 33.3022C122.523 33.5025 122.062 33.8032 121.676 34.1863C121.289 34.5693 120.983 35.0268 120.778 35.531C120.573 36.0353 120.472 36.5759 120.481 37.1203C120.481 39.5003 122.222 41.2196 124.621 41.2196C127.021 41.2196 128.778 39.493 128.778 37.1203C128.778 34.7475 127.03 33.021 124.621 33.021ZM124.621 40.1128C122.986 40.1128 121.8 38.8589 121.8 37.1275C121.8 35.3962 122.955 34.1423 124.604 34.1423C126.254 34.1423 127.467 35.3697 127.467 37.1275C127.467 38.8854 126.292 40.1128 124.621 40.1128Z" fill="#161616"/>
<path d="M70.0715 29.6309H68.7188V30.9836H70.0715V29.6309Z" fill="#161616"/>
<path d="M64.1116 22.5076C65.9225 22.5076 67.5911 21.6781 68.4713 20.3373L67.3886 19.5705C66.6266 20.7208 65.5536 21.2802 64.1116 21.2802C61.3844 21.2802 59.4022 19.1968 59.4022 16.3249C59.4022 13.453 61.3795 11.3768 64.1116 11.3768C65.1967 11.3768 66.5374 12.0616 67.0414 12.8718L68.1867 12.0231C67.6934 11.4234 67.0702 10.9437 66.3642 10.6204C65.6582 10.2971 64.8879 10.1385 64.1116 10.1567C60.62 10.1567 57.9844 12.8092 57.9844 16.3321C57.9844 19.8551 60.6151 22.5076 64.1116 22.5076Z" fill="#161616"/>
<path d="M71.6225 14.3945H70.4023V22.2145H71.6225V14.3945Z" fill="#161616"/>
<path d="M92.3677 20.5014V16.9399C92.3677 15.2712 91.2319 14.1934 89.4741 14.1934C88.0273 14.1934 86.9301 14.5768 86.1922 15.3315L86.9422 16.202C87.5668 15.6209 88.392 15.3038 89.245 15.317C90.5616 15.317 91.1475 15.9175 91.1475 17.2678V17.3619H90.7231C87.3473 17.3619 85.8281 18.2034 85.8281 20.0915C85.8281 21.4563 86.9422 22.4088 88.5385 22.4088C89.7441 22.4088 90.5736 21.994 91.2151 21.0705C91.2159 21.4343 91.2482 21.7974 91.3115 22.1556L91.3236 22.2111H92.5124V22.1339C92.4356 21.5926 92.3873 21.0477 92.3677 20.5014ZM88.8953 21.2875C87.8416 21.2875 87.1592 20.7594 87.1592 19.9444C87.1592 18.9389 88.3359 18.3867 90.4724 18.3867H91.1596V18.7291C91.1475 20.3543 90.3229 21.2875 88.8953 21.2875Z" fill="#161616"/>
<path d="M89.426 12.9556H90.5545L88.8376 10.484L88.8183 10.4551H87.1328L89.4043 12.9339L89.426 12.9556Z" fill="#161616"/>
<path d="M71.6731 10.832H70.3203V12.1848H71.6731V10.832Z" fill="#161616"/>
<path d="M77.0872 21.2947C76.3445 21.2947 76.0407 20.9354 76.0407 20.0504V15.5219H78.2567V14.4007H76.0407V12.2305H74.8206V14.4007H73.1953V15.5219H74.8206V20.3615C74.8206 21.6492 75.556 22.4184 76.793 22.4184C77.3135 22.4018 77.829 22.3117 78.3242 22.1507V21.0704C77.9204 21.1862 77.506 21.2614 77.0872 21.2947Z" fill="#161616"/>
<path d="M83.4838 21.2947C82.7387 21.2947 82.4349 20.9354 82.4349 20.0504V15.5219H84.6509V14.4007H82.4325V12.2305H81.2268V14.4007H79.6016V15.5219H81.2268V20.3615C81.2268 21.6492 81.9647 22.4184 83.1993 22.4184C83.7198 22.4021 84.2353 22.3119 84.7305 22.1507V21.0704C84.3235 21.1869 83.9058 21.262 83.4838 21.2947Z" fill="#161616"/>
</svg>

<svg width="129" height="58" fill="none" xmlns="http://www.w3.org/2000/svg"><path d="M20.506 54.4A20.51 20.51 0 013.419 34.178v-5.124H0v5.124A23.926 23.926 0 0020.496 57.86l.01-3.458zm6.869 0a20.51 20.51 0 0017.087-20.223v-5.124h3.419v5.124a23.925 23.925 0 01-20.496 23.682l-.01-3.458zM20.506 0H0v22.216h3.42V3.419h17.086V0zm6.869 0v3.42h17.087v18.796h3.419V0H27.375z" fill="#161616"/><path d="M19.942 19.433H13.88v-9.177h-3.161v11.962h9.223v-2.785zm14.51 2.785l4.613-11.962h-3.472l-2.588 7.967-2.602-7.967h-3.52l4.528 11.962h3.041zM15.366 36.416h2.216v1.835a3.537 3.537 0 01-.677.186c-.3.047-.605.07-.91.07a3.858 3.858 0 01-1.446-.258 2.956 2.956 0 01-1.056-.724 3.02 3.02 0 01-.644-1.097 4.379 4.379 0 01-.222-1.423 3.88 3.88 0 01.241-1.394 3.27 3.27 0 01.68-1.092 3.08 3.08 0 011.027-.723 3.22 3.22 0 011.295-.258c.502-.01 1 .09 1.46.29.39.162.74.41 1.024.723l.128.147 2.006-2.286-.116-.114a5.477 5.477 0 00-1.982-1.16 7.816 7.816 0 00-2.616-.429 7.285 7.285 0 00-2.54.437 6.158 6.158 0 00-2.059 1.258A5.787 5.787 0 009.8 32.391a6.993 6.993 0 000 5.163 5.9 5.9 0 001.36 1.987 6.116 6.116 0 002.076 1.283c.835.317 1.72.482 2.614.485.85.005 1.699-.09 2.527-.285a9.096 9.096 0 002.032-.738l.09-.046v-6.428h-5.132v2.604zm19.029-7.369h-2.94L26.439 41.01h3.424l.853-2.282h4.268l.902 2.282h3.487l-4.977-11.963zm-.217 7.166H31.55l1.328-3.65 1.3 3.65zm30.915-1.838a3.75 3.75 0 00-2.952-1.392c-2.41 0-4.157 1.73-4.157 4.1 0 2.341 1.787 4.099 4.157 4.099a3.824 3.824 0 002.952-1.384v1.186h1.22V28.445h-1.22v5.93zm-2.952 5.712c-1.67 0-2.838-1.23-2.838-2.985s1.187-2.988 2.822-2.988a2.987 2.987 0 11.017 5.973zm7.876-6.896h-1.22v7.82h1.22v-7.82zm8.683-3.939h-1.317v11.76h6.735v-1.22h-5.419v-10.54zm13.442 10.064v-6.125h-1.22v4.073c0 1.852-1.145 2.821-2.279 2.821-1.4 0-2.001-.745-2.001-2.493v-4.4h-1.22V38.2c0 1.929 1.051 3.007 2.959 3.007a3.219 3.219 0 002.541-1.315v.427c0 .213.018.425.05.634v.058h1.25v-.077a72.383 72.383 0 01-.08-1.618zm8.675-4.931a3.619 3.619 0 00-2.934-1.399c-2.267 0-3.977 1.739-3.977 4.042a3.985 3.985 0 004.075 3.976c1.206 0 2.195-.463 2.836-1.343v1.283c0 1.835-1.058 2.893-2.893 2.893a3.572 3.572 0 01-2.894-1.384l-.91.94c1.004 1.069 2.193 1.566 3.746 1.566 2.652 0 4.188-1.462 4.188-4.008v-7.757h-1.22l-.017 1.19zm-2.804 5.507A2.843 2.843 0 0195.225 37c0-1.565 1.269-2.894 2.77-2.894 1.708 0 2.856 1.206 2.856 2.988a2.794 2.794 0 01-.829 1.998 2.777 2.777 0 01-2.01.801zm12.378-.596v-3.564c0-1.666-1.136-2.744-2.893-2.744-1.447 0-2.544.384-3.282 1.138l.75.87a3.306 3.306 0 012.302-.886c1.317 0 1.903.602 1.903 1.953v.094h-.424c-3.376 0-4.895.841-4.895 2.73 0 1.364 1.114 2.317 2.71 2.317 1.206 0 2.035-.415 2.676-1.339.002.364.035.727.099 1.085v.056h1.187l-.012-.077a15.64 15.64 0 01-.121-1.633zm-3.484.786c-1.054 0-1.736-.528-1.736-1.345 0-1.003 1.176-1.555 3.313-1.555h.687v.342c0 1.625-.825 2.558-2.264 2.558zm9.122-7.097a3.168 3.168 0 00-2.542 1.312 7.57 7.57 0 00-.05-1.054v-.06h-1.249l.084 1.688v6.127h1.22V37.07c0-2.17 1.254-2.954 2.329-2.954 1.348 0 1.951.77 1.951 2.494v4.403h1.22v-5.011c-.005-1.939-1.056-3.017-2.963-3.017zm8.592.036a4.031 4.031 0 00-4.14 4.1c0 2.38 1.741 4.099 4.14 4.099 2.4 0 4.157-1.727 4.157-4.1 0-2.372-1.748-4.099-4.157-4.099zm0 7.092c-1.635 0-2.821-1.254-2.821-2.986 0-1.73 1.155-2.985 2.804-2.985 1.65 0 2.863 1.228 2.863 2.985 0 1.758-1.175 2.986-2.846 2.986zM70.072 29.63h-1.353v1.354h1.353V29.63zm-5.96-7.122c1.81 0 3.48-.83 4.36-2.17l-1.083-.768c-.762 1.15-1.835 1.71-3.277 1.71-2.728 0-4.71-2.083-4.71-4.955s1.977-4.948 4.71-4.948c1.085 0 2.425.685 2.93 1.495l1.145-.849a5.12 5.12 0 00-4.075-1.866c-3.492 0-6.128 2.652-6.128 6.175 0 3.523 2.631 6.176 6.128 6.176zm7.511-8.113h-1.22v7.82h1.22v-7.82zm20.745 6.106V16.94c0-1.669-1.136-2.747-2.894-2.747-1.447 0-2.544.384-3.282 1.139l.75.87a3.306 3.306 0 012.303-.885c1.317 0 1.902.6 1.902 1.95v.095h-.424c-3.376 0-4.895.841-4.895 2.73 0 1.364 1.114 2.317 2.71 2.317 1.206 0 2.036-.415 2.677-1.338 0 .363.033.726.096 1.085l.013.055h1.188v-.077a15.604 15.604 0 01-.144-1.633zm-3.473.787c-1.053 0-1.736-.529-1.736-1.344 0-1.005 1.177-1.557 3.313-1.557h.688v.342c-.013 1.625-.837 2.559-2.265 2.559zm.531-8.332h1.129l-1.717-2.472-.02-.029h-1.685l2.271 2.479.022.022zm-17.753-2.124H70.32v1.353h1.353v-1.353zm5.414 10.463c-.743 0-1.046-.36-1.046-1.245v-4.528h2.216V14.4H76.04v-2.17h-1.22v2.17h-1.626v1.12h1.626v4.84c0 1.288.735 2.057 1.972 2.057a5.521 5.521 0 001.531-.267v-1.08a6.298 6.298 0 01-1.237.224zm6.397 0c-.745 0-1.05-.36-1.05-1.245v-4.528h2.217V14.4h-2.218v-2.17h-1.206v2.17h-1.625v1.12h1.625v4.84c0 1.288.738 2.057 1.972 2.057a5.503 5.503 0 001.532-.267v-1.08a6.299 6.299 0 01-1.247.224z" fill="#161616"/></svg>
